X:361
T:42nd Reg’t Welcome Home Again,The. RH.361
R:march
S:Rev.R.Harrison’s MS,c1815,Cumbria
N:I added the rest at the start of the B music.
O:England
A:Temple Sowerby,Cumbria
Z:vmp.Simon Wilson. Review PJH, 2008.
M:C|
L:1/8
Q:1/2=60
K:G
B|dddB dddB|eeed e3f|\
gcec BGAG|FD ((3DEF) G2G:|!
|:z|Gggd BGdB|BABG Agfa|\
g/f/e/d/ Bg ecAG|FD ((3DEF) G2G:|

